icons/src/scalable/default/status/yelp-page-search-symbolic.svg

<?xml version="1.0" encoding="UTF-8" standalone="no"?>
<svg
   height="16"
   id="svg7384"
   version="1.1"
   width="16"
   sodipodi:docname="yelp-page-search-symbolic.svg"
   inkscape:version="1.1 (ce6663b3b7, 2021-05-25)"
   xmlns:inkscape="http://www.inkscape.org/namespaces/inkscape"
   xmlns:sodipodi="http://sodipodi.sourceforge.net/DTD/sodipodi-0.dtd"
   xmlns="http://www.w3.org/2000/svg"
   xmlns:svg="http://www.w3.org/2000/svg"
   xmlns:rdf="http://www.w3.org/1999/02/22-rdf-syntax-ns#"
   xmlns:cc="http://creativecommons.org/ns#"
   xmlns:dc="http://purl.org/dc/elements/1.1/">
  <sodipodi:namedview
     id="namedview21"
     pagecolor="#ffffff"
     bordercolor="#666666"
     borderopacity="1.0"
     inkscape:pageshadow="2"
     inkscape:pageopacity="0.0"
     inkscape:pagecheckerboard="0"
     showgrid="true"
     inkscape:zoom="7"
     inkscape:cx="-19.214286"
     inkscape:cy="-3.2857143"
     inkscape:window-width="1920"
     inkscape:window-height="1043"
     inkscape:window-x="1920"
     inkscape:window-y="0"
     inkscape:window-maximized="1"
     inkscape:current-layer="svg7384">
    <inkscape:grid
       type="xygrid"
       id="grid31" />
  </sodipodi:namedview>
  <metadata
     id="metadata20854">
    <rdf:RDF>
      <cc:Work
         rdf:about="">
        <dc:title />
        <dc:format>image/svg+xml</dc:format>
        <dc:type
           rdf:resource="http://purl.org/dc/dcmitype/StillImage" />
      </cc:Work>
    </rdf:RDF>
  </metadata>
  <defs
     id="defs7386">
    <linearGradient
       id="linearGradient5606"
       inkscape:swatch="solid">
      <stop
         id="stop5608"
         offset="0"
         style="stop-color:#000000;stop-opacity:1;" />
    </linearGradient>
    <linearGradient
       id="linearGradient4526"
       inkscape:swatch="solid">
      <stop
         id="stop4528"
         offset="0"
         style="stop-color:#ffffff;stop-opacity:1;" />
    </linearGradient>
    <linearGradient
       id="linearGradient3600-4"
       inkscape:swatch="gradient">
      <stop
         id="stop3602-7"
         offset="0"
         style="stop-color:#f4f4f4;stop-opacity:1" />
      <stop
         id="stop3604-6"
         offset="1"
         style="stop-color:#dbdbdb;stop-opacity:1" />
    </linearGradient>
  </defs>
  <g
     id="layer9"
     label="status"
     style="display:inline"
     transform="translate(-433.0002,-213)" />
  <g
     id="layer2"
     style="display:inline"
     transform="translate(-192,-580)" />
  <g
     id="layer4"
     style="display:inline"
     transform="translate(-192,-580)" />
  <g
     id="g1812"
     style="display:inline"
     transform="translate(-192,-580)" />
  <g
     id="g6217"
     style="display:inline"
     transform="translate(-192,-580)" />
  <g
     id="layer3"
     style="display:inline"
     transform="translate(-192,-580)" />
  <g
     id="g1833"
     style="display:inline"
     transform="translate(-192,-580)" />
  <path
     id="path5289-0-6"
     style="color:#000000;display:inline;overflow:visible;visibility:visible;fill:#bebebe;fill-opacity:1;fill-rule:nonzero;stroke:none;stroke-width:4;marker:none;enable-background:accumulate"
     d="M 4.9941406 0 C 3.7360406 0.01507 2.81522 -0.02842125 2.0625 0.38671875 C 1.68614 0.59428875 1.3892894 0.9442025 1.2246094 1.3828125 C 1.0598994 1.8214225 1 2.34239 1 3 L 1 13 C 1 13.65761 1.0599394 14.178517 1.2246094 14.617188 C 1.3892694 15.055848 1.68613 15.407574 2.0625 15.615234 C 2.81525 16.030604 3.7359406 15.9855 4.9941406 16 L 4.9980469 16 L 7 16 L 7 15 L 5 15 C 3.74147 14.9853 2.9108819 14.940201 2.5449219 14.738281 C 2.3615119 14.637091 2.2577562 14.525535 2.1601562 14.265625 C 2.0625963 14.005725 2 13.59239 2 13 L 2 3 C 2 2.40761 2.0625563 1.994185 2.1601562 1.734375 C 2.2576963 1.474575 2.3615019 1.3628787 2.5449219 1.2617188 C 2.9109019 1.0598987 3.74137 1.0152 5 1 L 5.0058594 1 L 10 1 L 10 5 L 12 5 L 14 5 L 14 7 L 15 7 L 15 5 L 15 4.25 L 10.75 0 L 10 0 L 4.9960938 0 L 4.9941406 0 z M 4 6 L 4 7 L 7 7 L 12 7 L 12 6 L 4 6 z M 4 8 L 4 9 L 7 9 L 7 8 L 4 8 z M 4 10 L 4 11 L 7 11 L 7 10 L 4 10 z M 4 12 L 4 13 L 7 13 L 7 12 L 4 12 z " />
  <path
     id="path1244"
     style="color:#000000;font-style:normal;font-variant:normal;font-weight:normal;font-stretch:normal;font-size:medium;line-height:normal;font-family:sans-serif;font-variant-ligatures:normal;font-variant-position:normal;font-variant-caps:normal;font-variant-numeric:normal;font-variant-alternates:normal;font-variant-east-asian:normal;font-feature-settings:normal;font-variation-settings:normal;text-indent:0;text-align:start;text-decoration:none;text-decoration-line:none;text-decoration-style:solid;text-decoration-color:#000000;letter-spacing:normal;word-spacing:normal;text-transform:none;writing-mode:lr-tb;direction:ltr;text-orientation:mixed;dominant-baseline:auto;baseline-shift:baseline;text-anchor:start;white-space:normal;shape-padding:0;shape-margin:0;inline-size:0;clip-rule:nonzero;display:inline;overflow:visible;visibility:visible;isolation:auto;mix-blend-mode:normal;color-interpolation:sRGB;color-interpolation-filters:linearRGB;solid-color:#000000;solid-opacity:1;vector-effect:none;fill:#bebebe;fill-opacity:1;fill-rule:nonzero;stroke:none;stroke-linecap:round;stroke-linejoin:miter;stroke-miterlimit:4;stroke-dasharray:none;stroke-dashoffset:0;stroke-opacity:1;marker:none;color-rendering:auto;image-rendering:auto;shape-rendering:auto;text-rendering:auto;enable-background:accumulate;stop-color:#000000"
     d="m 11,8.000006 c -1.650932,0 -3,1.3490681 -3,3 0,1.650932 1.349068,3 3,3 0.676145,0 1.293934,-0.234604 1.796875,-0.615234 a 0.66842997,0.66842997 0 0 0 0.191406,0.548828 l 1.671875,1.671875 a 0.66842997,0.66842997 0 0 0 0.945313,0 0.66842997,0.66842997 0 0 0 0,-0.945313 l -1.671875,-1.671875 a 0.66842997,0.66842997 0 0 0 -0.496094,-0.195312 0.66842997,0.66842997 0 0 0 -0.05273,0.0039 c 0.38063,-0.502941 0.615234,-1.12073 0.615234,-1.796875 0,-1.6509319 -1.349068,-3 -3,-3 z m 0,1 c 1.110492,0 2,0.8895082 2,2 0,1.110492 -0.889508,2 -2,2 -1.110492,0 -2,-0.889508 -2,-2 0,-1.1104918 0.889508,-2 2,-2 z" />
</svg>

<svg version="1.1" viewBox="0 0 16 16" xmlns="http://www.w3.org/2000/svg">
 <path d="m4.9941 0c-1.2581 0.01507-2.1789-0.028421-2.9316 0.38672-0.37636 0.20757-0.67321 0.55748-0.83789 0.99609-0.16471 0.43861-0.22461 0.95958-0.22461 1.6172v10c0 0.65761 0.059939 1.1785 0.22461 1.6172 0.16466 0.43866 0.46152 0.79039 0.83789 0.99805 0.75275 0.41537 1.6734 0.37027 2.9316 0.38477h0.0039063 2.002v-1h-2c-1.2585-0.0147-2.0891-0.059799-2.4551-0.26172-0.18341-0.10119-0.28717-0.21275-0.38477-0.47266-0.09756-0.2599-0.16016-0.67324-0.16016-1.2656v-10c0-0.59239 0.062556-1.0058 0.16016-1.2656 0.09754-0.2598 0.20135-0.3715 0.38477-0.47266 0.36598-0.20182 1.1964-0.24652 2.4551-0.26172h0.0058594 4.9941v4h2 2v2h1v-2-0.75l-4.25-4.25h-0.75-5.0039-0.0019532zm-0.99414 6v1h3 5v-1h-8zm0 2v1h3v-1h-3zm0 2v1h3v-1h-3zm0 2v1h3v-1h-3z" color="#000000" fill="#bebebe"/>
 <path d="m11 8c-1.6509 0-3 1.3491-3 3 0 1.6509 1.3491 3 3 3 0.67614 0 1.2939-0.2346 1.7969-0.61523a0.66843 0.66843 0 0 0 0.19141 0.54883l1.6719 1.6719a0.66843 0.66843 0 0 0 0.94531 0 0.66843 0.66843 0 0 0 0-0.94531l-1.6719-1.6719a0.66843 0.66843 0 0 0-0.49609-0.19531 0.66843 0.66843 0 0 0-0.05273 0.0039c0.38063-0.50294 0.61523-1.1207 0.61523-1.7969 0-1.6509-1.3491-3-3-3zm0 1c1.1105 0 2 0.88951 2 2 0 1.1105-0.88951 2-2 2s-2-0.88951-2-2c0-1.1105 0.88951-2 2-2z" color="#000000" color-rendering="auto" dominant-baseline="auto" fill="#bebebe" image-rendering="auto" shape-rendering="auto" solid-color="#000000" stop-color="#000000" style="font-feature-settings:normal;font-variant-alternates:normal;font-variant-caps:normal;font-variant-east-asian:normal;font-variant-ligatures:normal;font-variant-numeric:normal;font-variant-position:normal;font-variation-settings:normal;inline-size:0;isolation:auto;mix-blend-mode:normal;shape-margin:0;shape-padding:0;text-decoration-color:#000000;text-decoration-line:none;text-decoration-style:solid;text-indent:0;text-orientation:mixed;text-transform:none;white-space:normal"/>
</svg>
